svg/hubject.svg

<svg width="24" height="24" viewBox="0 0 24 24" xmlns="http://www.w3.org/2000/svg">
<path d="M11.9258 5.13297C13.3084 5.09131 14.6618 5.53299 15.7577 6.3834C16.8556 7.23381 17.6261 8.44036 17.9395 9.79838H5.84528C6.15429 8.42458 6.9328 7.20408 8.04447 6.35104C9.15634 5.49801 10.5303 5.06684 11.9258 5.13297ZM12.2564 18.6404C10.6393 18.6536 9.0735 18.0685 7.85564 16.9958C6.63757 15.9231 5.85187 14.4373 5.64706 12.8198H21.9718C22.0756 11.4304 21.892 10.0344 21.4328 8.72025C20.9737 7.40612 20.2491 6.2024 19.3049 5.18535C18.3607 4.16829 17.2169 3.36015 15.9473 2.81189C14.6758 2.26362 13.3064 1.98737 11.9258 2.00051C10.5862 1.98676 9.25795 2.24926 8.02292 2.77225C6.78768 3.29503 5.67141 4.06698 4.74299 5.04075C3.81456 6.01452 3.09335 7.1695 2.62365 8.4347C2.15395 9.69989 1.94575 11.0484 2.01202 12.3977C2.01202 12.8643 2.01202 12.8643 2.01202 12.8643C2.25696 15.419 3.45625 17.7841 5.36699 19.4797C7.27753 21.1755 9.7564 22.0748 12.3003 21.9951C18.9097 21.9951 21.4428 17.552 21.7303 15.8635H18.0952C17.4624 16.8176 16.5861 17.5805 15.5581 18.0699C14.5301 18.5591 13.3882 18.7563 12.2564 18.6404Z" />
</svg>

<svg width="24" height="24" viewBox="0 0 24 24" xmlns="http://www.w3.org/2000/svg"><path d="M11.926 5.133a5.955 5.955 0 0 1 3.832 1.25 6.034 6.034 0 0 1 2.181 3.415H5.845a6.005 6.005 0 0 1 2.2-3.447 5.915 5.915 0 0 1 3.88-1.218zm.33 13.507a6.576 6.576 0 0 1-4.4-1.644 6.682 6.682 0 0 1-2.209-4.176h16.325a10.14 10.14 0 0 0-.54-4.1 10.082 10.082 0 0 0-2.127-3.535 9.983 9.983 0 0 0-3.358-2.373A9.917 9.917 0 0 0 11.926 2a9.75 9.75 0 0 0-3.903.771 9.822 9.822 0 0 0-3.28 2.269 9.922 9.922 0 0 0-2.12 3.394 9.981 9.981 0 0 0-.611 3.963v.466a10.137 10.137 0 0 0 3.355 6.616 9.973 9.973 0 0 0 6.933 2.515c6.61 0 9.143-4.443 9.43-6.132h-3.635a6.292 6.292 0 0 1-2.537 2.207 6.21 6.21 0 0 1-3.302.57z"/></svg>
